!!!COM: Schiørring, Niels
!!!CDT: 1743-1798
!!!OPR@@DA: Choral-Bog
!!!ONM: 47
!!!OTL@@DA: Jeg vil din Priis udsiunge
**kern	**fb	**kern	**kern	**kern	**kern	**kern	**kern	**kern
*part6	*part6	*part6	*part5	*part5	*part4	*part3	*part2	*part1
*staff8	*	*staff7	*staff6	*staff5	*staff4	*staff3	*staff2	*staff1
*clefF4	*	*clefC1	*clefF4	*clefC1	*clefF4	*clefC4	*clefC3	*clefC1
*mclefF4	*	*mclefG2	*mclefF4	*mclefG2	*mclefF4	*mclefGv2	*mclefG2	*mclefG2
*k[b-]	*	*k[b-]	*k[b-]	*k[b-]	*k[b-]	*k[b-]	*k[b-]	*k[b-]
*F:	*	*F:	*F:	*F:	*F:	*F:	*F:	*F:
*M3/2	*	*M3/2	*M3/2	*M3/2	*M3/2	*M3/2	*M3/2	*M3/2
*	*	*	*^	*^	*	*	*	*
2F	.	2f	2A	2F	2f	2c	2F	2A	2c	2f
=1	=1	=1	=1	=1	=1	=1	=1	=1	=1	=1
1D	.	1f	1A	1D	1f	1d	1D	1A	1f	1f
2E	6	2cc	2G	2E	2cc	2c	2E	2c	2g	2cc
=2	=2	=2	=2	=2	=2	=2	=2	=2	=2	=2
1F	.	1a	1F	1F	1a	1c	1F	1c	1f	1a
*	*	*	*	*	*	*	*^	*	*	*
2BB-	.	2f	2F	2BB-	2f	2d	2B-	2BB-	2d	2d	2f
=3	=3	=3	=3	=3	=3	=3	=3	=3	=3	=3	=3
1AA	6	(2.f	1F	1AA	(2.f	1.c	1A	1AA	1.c	1.f	(2.f
.	.	4g	.	.	4g	.	.	.	.	.	4g
2FF	.	2a)	2F	2FF	2a)	.	2F	2FF	.	.	2a)
=4	=4	=4	=4	=4	=4	=4	=4	=4	=4	=4	=4
1C	.	1g	1E	1C	1g	1c	1C	1.r	1c	1e	1g
2F	.	2a	2F	2F	2a	2c	2F	.	2c	2f	2a
=5	=5	=5	=5	=5	=5	=5	=5	=5	=5	=5	=5
1AA	6	1cc	1F	1AA	1cc	1c	1AA	1.r	1c	1f	1cc
2BB-	.	2b-	2F	2BB-	2b-	2d	2BB-	.	2d	2f	2b-
=6	=6	=6	=6	=6	=6	=6	=6	=6	=6	=6	=6
1.C	6 4	1a	1F	1.C	1a	1.c	1C	1.r	1c	1f	1a
.	5 3	2g	2E	.	2g	.	2C	.	2B-	2e	2g
=	=	=	=	=	=	=	=	=	=	=	=
1FF	.	1f	1F	1FF	1f	1c	1F	1FF	1A	1f	1f
*	*	*	*	*	*	*	*v	*v	*	*	*
=7:|!	=7:|!	=7:|!	=7:|!	=7:|!	=7:|!	=7:|!	=7:|!	=7:|!	=7:|!	=7:|!
2F	.	2a	2c	2F	2a	2f	2F	2c	2f	2a
=8	=8	=8	=8	=8	=8	=8	=8	=8	=8	=8
1D	.	1a	1d	1D	1a	1f	1D	1d	1f	1a
2A	6	2cc	2c	2A	2cc	2f	2A	2c	2f	2cc
=9	=9	=9	=9	=9	=9	=9	=9	=9	=9	=9
1E	6	1cc	1.c	1E	1cc	1g	1E	1c	1g	1cc
2F	.	2a	.	2F	2a	2f	2F	2c	2f	2a
=10	=10	=10	=10	=10	=10	=10	=10	=10	=10	=10
1C	.	1g	1c	1C	1g	1e	1C	1c	1e	1g
2A	6	2f	2ryy	2A	2c	2c	2A	2c	2f	2f
=11	=11	=11	=11	=11	=11	=11	=11	=11	=11	=11
1F	.	1a	1.ryy	1F	1c	1f	1F	1c	1f	1a
2D	6	2b-	.	2D	2d	2f	2D	2d	2f	2b-
=12	=12	=12	=12	=12	=12	=12	=12	=12	=12	=12
1E	6	1cc	1.ryy	1E	1c	1g	1E	1c	1g	1cc
2E	.	2g	.	2E	2c	2g	2E	2c	2g	2g
=13	=13	=13	=13	=13	=13	=13	=13	=13	=13	=13
1F	.	1.a	1.ryy	1F	1.c	1f	[1F	1.c	(1f	1.a
*	*	*	*	*	*	*	*^	*	*	*
2FF	-7	.	.	2FF	.	[2e-X	2F]	2FF	.	[2e-X)	.
*	*	*	*	*	*	*	*v	*v	*	*	*
=14	=14	=14	=14	=14	=14	=14	=14	=14	=14	=14
1BB-	-r4	1f	1.ryy	1BB-	1B-	2e-]	1BB-	1B-	(2e-]	1f
*	*	*	*	*	*	*	*^	*	*	*
2FF	3	2a	.	2FF	2c	2f	2F	2FF	2c	2f	2a
=15	=15	=15	=15	=15	=15	=15	=15	=15	=15	=15	=15
1AA	6	1cc	1ryy	1AA	1c	1f	1AA	1.r	1c	1f	1cc
*	*	*	*	*	*	*^	*	*	*	*	*
2C	7	2b-	2G	2C	2b-	2eni	2c\	2C	.	2e	2g	2b-
*	*	*	*	*	*	*v	*v	*	*	*	*	*
=16	=16	=16	=16	=16	=16	=16	=16	=16	=16	=16	=16
1C#X	6	1a	1A	1C#X	1a	1e	1C#X	1.r	(2e	1e	1a
.	.	.	.	.	.	.	.	.	2A)	.	.
2D	.	2f	2A	2D	2f	2d	2D	.	2A	2d	2f
=17	=17	=17	=17	=17	=17	=17	=17	=17	=17	=17	=17
1AA	6	(2.f	1F	1AA	(2.f	1.cni	(1A	1AA	1.c	[1.f	(2.f
.	.	4g	.	.	4g	.	.	.	.	.	4g
2FF	.	2a)	[2F	2FF	2a)	.	2F)	2FF	.	.	2a)
=18	=18	=18	=18	=18	=18	=18	=18	=18	=18	=18	=18
1C	4	1g	2F]	1C	1g	1c	1C	1.r	1c	(2f]	1g
2F	3	2a	2F	2F	2a	2c	2F	.	2c	2f	2a
=19	=19	=19	=19	=19	=19	=19	=19	=19	=19	=19	=19
1E	6	1cc	1G	1E	1cc	2c	1E	1.r	1c	1g	1cc
.	.	.	.	.	.	2g	.	.	.	.	.
2C	7	2b-	2c	2C	2b-	2e	2C	.	2c	2e	2b-
=20	=20	=20	=20	=20	=20	=20	=20	=20	=20	=20	=20
1F	.	1a	1c	1F	1a	[1f	1F	1.r	1c	[1f	1a
2C	4	2g	2B-	2C	2g	4f]	2C	.	2B-	(4f]	2g
=21	=21	=21	=21	=21	=21	=21	=21	=21	=21	=21	=21
1FF	3	1f	1A	1F	1f	1c	1F	1FF	1A	1f	1f
*	*	*	*v	*v	*	*	*v	*v	*	*	*
*	*	*	*	*v	*v	*	*	*	*
==	==	==	==	==	==	==	==	==
*-	*-	*-	*-	*-	*-	*-	*-	*-
!!!system-decoration: {(s1,s2,s3,s4)}{(s5,s6)}{(s7,s8)}
!!!RDF**kern: i = editorial accidental
!!!RDF**kern: > = above
!!!RDF**kern: < = below
!!!AGN: chorale
!!!EED: Derek Remeš
!!!EED2: Victor Phan
!!!END: 2023/11/28
!!!ENC: Wolfgang Drescher
!!!EEV: 2023/11/30
!!!title: @{ONM}. @{OTL}